X:5
T:Pavan \340 5: 'Lachrimae'
%%measurenb 0
%%scale 0.7
%%squarebreve
%%footer "$T	Page $P	Gumbleton Music, 2009\n"
%%MIDI program 1 43
%%MIDI program 2 44
%%MIDI program 3 44
%%MIDI program 4 44
%%MIDI program 5 44
C:Thomas Weelkes
P:Tenor II
M:C|
L:1/4
K:F clef=alto middle=c 
=B4 c G _B2 | A3 A F G A B | c3 B A2 z G |
d3 c B A c>B | A G A2 G4 :: B4 B3 G |
B3 d c3 c-|c B A2 G>G A B | c A =B c d G G E |
^F G/A/B/c/ d A4 :: A4 D2 E F/G/ |A3 A D E ^F G |
A2 =B>c d>c B c | d3 d c G A B | c>G A G A2 D E |
^F G A D HD4 :|]

